src/assets/icons/calendar-icon.svg

<svg width="24" height="24" viewBox="0 0 24 24" fill="none" xmlns="http://www.w3.org/2000/svg">
<path d="M2 20.9375C2 22.0762 2.95982 23 4.14286 23H19.8571C21.0402 23 22 22.0762 22 20.9375V9.25H2V20.9375ZM16.2857 12.5156C16.2857 12.232 16.5268 12 16.8214 12H18.6071C18.9018 12 19.1429 12.232 19.1429 12.5156V14.2344C19.1429 14.518 18.9018 14.75 18.6071 14.75H16.8214C16.5268 14.75 16.2857 14.518 16.2857 14.2344V12.5156ZM16.2857 18.0156C16.2857 17.732 16.5268 17.5 16.8214 17.5H18.6071C18.9018 17.5 19.1429 17.732 19.1429 18.0156V19.7344C19.1429 20.018 18.9018 20.25 18.6071 20.25H16.8214C16.5268 20.25 16.2857 20.018 16.2857 19.7344V18.0156ZM10.5714 12.5156C10.5714 12.232 10.8125 12 11.1071 12H12.8929C13.1875 12 13.4286 12.232 13.4286 12.5156V14.2344C13.4286 14.518 13.1875 14.75 12.8929 14.75H11.1071C10.8125 14.75 10.5714 14.518 10.5714 14.2344V12.5156ZM10.5714 18.0156C10.5714 17.732 10.8125 17.5 11.1071 17.5H12.8929C13.1875 17.5 13.4286 17.732 13.4286 18.0156V19.7344C13.4286 20.018 13.1875 20.25 12.8929 20.25H11.1071C10.8125 20.25 10.5714 20.018 10.5714 19.7344V18.0156ZM4.85714 12.5156C4.85714 12.232 5.09821 12 5.39286 12H7.17857C7.47321 12 7.71429 12.232 7.71429 12.5156V14.2344C7.71429 14.518 7.47321 14.75 7.17857 14.75H5.39286C5.09821 14.75 4.85714 14.518 4.85714 14.2344V12.5156ZM4.85714 18.0156C4.85714 17.732 5.09821 17.5 5.39286 17.5H7.17857C7.47321 17.5 7.71429 17.732 7.71429 18.0156V19.7344C7.71429 20.018 7.47321 20.25 7.17857 20.25H5.39286C5.09821 20.25 4.85714 20.018 4.85714 19.7344V18.0156ZM19.8571 3.75H17.7143V1.6875C17.7143 1.30937 17.3929 1 17 1H15.5714C15.1786 1 14.8571 1.30937 14.8571 1.6875V3.75H9.14286V1.6875C9.14286 1.30937 8.82143 1 8.42857 1H7C6.60714 1 6.28571 1.30937 6.28571 1.6875V3.75H4.14286C2.95982 3.75 2 4.67383 2 5.8125V7.875H22V5.8125C22 4.67383 21.0402 3.75 19.8571 3.75Z" fill="#0071DC"/>
</svg>

<svg xmlns="http://www.w3.org/2000/svg" width="24" height="24" fill="none"><path fill="#0071DC" d="M2 20.938C2 22.075 2.96 23 4.143 23h15.714C21.04 23 22 22.076 22 20.938V9.25H2zm14.286-8.422c0-.284.24-.516.535-.516h1.786c.295 0 .536.232.536.516v1.718a.53.53 0 0 1-.536.516h-1.786a.527.527 0 0 1-.535-.516zm0 5.5c0-.284.24-.516.535-.516h1.786c.295 0 .536.232.536.516v1.718a.53.53 0 0 1-.536.516h-1.786a.527.527 0 0 1-.535-.516zm-5.715-5.5c0-.284.242-.516.536-.516h1.786c.294 0 .536.232.536.516v1.718a.527.527 0 0 1-.536.516h-1.786a.527.527 0 0 1-.536-.516zm0 5.5c0-.284.242-.516.536-.516h1.786c.294 0 .536.232.536.516v1.718a.527.527 0 0 1-.536.516h-1.786a.527.527 0 0 1-.536-.516zm-5.714-5.5c0-.284.241-.516.536-.516h1.786c.294 0 .535.232.535.516v1.718a.527.527 0 0 1-.535.516H5.393a.527.527 0 0 1-.536-.516zm0 5.5c0-.284.241-.516.536-.516h1.786c.294 0 .535.232.535.516v1.718a.527.527 0 0 1-.535.516H5.393a.527.527 0 0 1-.536-.516zm15-14.266h-2.143V1.688c0-.379-.321-.688-.714-.688h-1.429c-.392 0-.714.31-.714.688V3.75H9.143V1.688c0-.379-.322-.688-.714-.688H7c-.393 0-.714.31-.714.688V3.75H4.143C2.96 3.75 2 4.674 2 5.813v2.062h20V5.813c0-1.14-.96-2.063-2.143-2.063"/></svg>
